www/assets/icons/filter_alt_off.svg

<svg width="24" height="24" viewBox="0 0 24 24" xmlns="http://www.w3.org/2000/svg" fill='currentColor'><path d="M20.5 4.9001C21.01 4.2401 20.54 3.2901 19.71 3.2901H7.53998L15.51 11.2601L20.5 4.9001Z"/><path d="M3.51998 2.1001L2.09998 3.5101L10.71 12.2901V18.2901C10.71 18.8401 11.16 19.2901 11.71 19.2901H13.71C14.26 19.2901 14.71 18.8401 14.71 18.2901V16.1201L20.49 21.9001L21.9 20.4901L3.51998 2.1001Z"/></svg>

<svg xmlns="http://www.w3.org/2000/svg" width="24" height="24" viewBox="0 0 24 24" fill='currentColor'><path d="M20.5 4.9a.998.998 0 0 0-.79-1.61H7.54l7.97 7.97zM3.52 2.1 2.1 3.51l8.61 8.78v6c0 .55.45 1 1 1h2c.55 0 1-.45 1-1v-2.17l5.78 5.78 1.41-1.41z"/></svg>
